src/icons/volume.svg

<?xml version="1.0" encoding="UTF-8" standalone="no"?>
<!DOCTYPE svg PUBLIC "-//W3C//DTD SVG 1.1//EN" "http://www.w3.org/Graphics/SVG/1.1/DTD/svg11.dtd">
<svg width="25px" height="25px" version="1.1" xmlns="http://www.w3.org/2000/svg" xmlns:xlink="http://www.w3.org/1999/xlink" xml:space="preserve" xmlns:serif="http://www.serif.com/" style="fill-rule:evenodd;clip-rule:evenodd;stroke-linecap:round;stroke-linejoin:round;stroke-miterlimit:1.5;">
    <g transform="matrix(1,0,0,1,-1776,-48)">
        <g transform="matrix(1,0,0,1,0,30.298)">
            <g id="volume" transform="matrix(0.5,0,0,0.5,876.571,14.924)">
                <g id="volume-bg" transform="matrix(1,0,0,1,1799.78,5.755)">
                    <circle cx="24.223" cy="24.397" r="24"/>
                </g>
                <g id="speaker" transform="matrix(1,0,0,1,1799.78,5.755)">
                    <path id="wave-small" d="M31.313,36.17c3.918,-2.686 6.259,-7.131 6.259,-11.882c0,-4.751 -2.341,-9.196 -6.259,-11.882" style="fill:none;stroke:white;stroke-width:3px;"/>
                    <path id="wave-med" d="M28.654,31.738c2.456,-1.684 3.924,-4.471 3.924,-7.45c0,-2.979 -1.468,-5.766 -3.924,-7.45" style="fill:none;stroke:white;stroke-width:2px;"/>
                    <path id="wave-lg" d="M27.196,27.53c1.068,-0.733 1.707,-1.946 1.707,-3.242c0,-1.296 -0.639,-2.509 -1.707,-3.242" style="fill:none;stroke:white;stroke-width:1.5px;"/>
                    <path id="speaker1" serif:id="speaker" d="M22.845,12.492c0.296,-0.195 0.675,-0.211 0.986,-0.043c0.312,0.168 0.506,0.494 0.507,0.848c0.002,4.6 0.009,16.846 0.012,21.722c0.001,0.393 -0.219,0.753 -0.569,0.933c-0.35,0.179 -0.771,0.148 -1.09,-0.082c-3.064,-2.203 -9.454,-6.797 -11.164,-8.026c-0.269,-0.194 -0.428,-0.505 -0.429,-0.836c-0.001,-1.345 -0.003,-4.889 -0.004,-6.254c0,-0.341 0.171,-0.659 0.456,-0.846c1.783,-1.17 8.321,-5.463 11.295,-7.416Z" style="fill:white;"/>
                </g>
            </g>
        </g>
    </g>
</svg>

<?xml version="1.0" encoding="UTF-8" standalone="no"?><!DOCTYPE svg PUBLIC "-//W3C//DTD SVG 1.1//EN" "http://www.w3.org/Graphics/SVG/1.1/DTD/svg11.dtd"><svg width="49px" height="49px" version="1.1" xmlns="http://www.w3.org/2000/svg" xmlns:xlink="http://www.w3.org/1999/xlink" xml:space="preserve" xmlns:serif="http://www.serif.com/" style="fill-rule:evenodd;clip-rule:evenodd;stroke-linecap:round;stroke-linejoin:round;stroke-miterlimit:1.5;"><g transform="matrix(1,0,0,1,-1776,-176)"><g transform="matrix(1,0,0,1,2.27374e-13,20.6936)"><g id="volume" transform="matrix(1,0,0,1,-23.4286,149.452)"><g id="volume-bg" transform="matrix(1,0,0,1,1799.78,5.755)"><circle cx="24.223" cy="24.397" r="24"/></g><g id="speaker" transform="matrix(1,0,0,1,1799.78,5.755)"><path id="wave-small" d="M31.313,36.17C35.231,33.484 37.572,29.039 37.572,24.288C37.572,19.537 35.231,15.092 31.313,12.406" style="fill:none;stroke:white;stroke-width:3px;"/><path id="wave-med" d="M28.654,31.738C31.11,30.054 32.578,27.267 32.578,24.288C32.578,21.309 31.11,18.522 28.654,16.838" style="fill:none;stroke:white;stroke-width:2px;"/><path id="wave-lg" d="M27.196,27.53C28.264,26.797 28.903,25.584 28.903,24.288C28.903,22.992 28.264,21.779 27.196,21.046" style="fill:none;stroke:white;stroke-width:1.5px;"/><path id="speaker1" serif:id="speaker" d="M22.845,12.492C23.141,12.297 23.52,12.281 23.831,12.449C24.143,12.617 24.337,12.943 24.338,13.297C24.34,17.897 24.347,30.143 24.35,35.019C24.351,35.412 24.131,35.772 23.781,35.952C23.431,36.131 23.01,36.1 22.691,35.87C19.627,33.667 13.237,29.073 11.527,27.844C11.258,27.65 11.099,27.339 11.098,27.008C11.097,25.663 11.095,22.119 11.094,20.754C11.094,20.413 11.265,20.095 11.55,19.908C13.333,18.738 19.871,14.445 22.845,12.492Z" style="fill:white;"/></g></g></g></g></svg>
